X:1
T:Title
%%score { 1 | ( 2 3 ) }
L:1/8
Q:1/4=100
M:4/4
K:F
V:1 treble nm="Grand Piano"
V:2 bass 
V:3 bass 
V:1
 A3 _A B=AGF | [DG]4 D2 z2 | E3 D C2 B2 | [CA]6 z2 | A3 _A B=AGF | [DG]4 D2 z2 | E3 B A2 G2 | %7
w: P.~Bilhorn * * * * *|||||||
 [A,F]6 z2 | [EG]3 [FA] [Ac][GB][FA][EG] | [FA]4 [Fc]2 z2 | [Fd]3 [Fd] [Fc]2 [FA]2 | [EG]6 z2 | %12
w: |||||
 c3 A dc[CGB][CFA] | [B,DG]4 D2 z2 | E3 D C2 B2 | [CA]6 z2 | c3 A dc[CGB][CFA] | [B,DG]4 D2 z2 | %18
w: ||||||
 E3 B A2 G2 | [A,F]6 z2 | [Ac]3 A c3 d | c6 z2 | [GB]3 [EG] [Ec]3 [GB] | A6 z2 | c3 A dc[GB][FA] | %25
w: |||||||
 [DG]4 D2 z2 | E3 B A2 G2 | [A,F]6 z2 |] %28
w: |||
V:2
 [F,C]3 [F,=B,] [F,D][F,C][E,G,C][F,A,C] | [B,,B,]4 [C,G,]2 z2 | %2
 [C,G,C]3 [C,F,C] [C,E,]2 [C,G,C]2 | [F,,F,]6 z2 | [F,C]3 [F,=B,] [F,D][F,C][E,G,C][F,A,C] | %5
 [B,,B,]4 [B,,G,]2 z2 | [C,G,C]3 [C,G,C] [C,F,C]2 [C,E,B,]2 | [F,,F,]6 z2 | %8
 [C,C]3 [C,C] [C,C][C,C][C,C][C,C] | [F,C]4 [F,A,]2 z2 | [B,,B,]3 [D,B,] [F,A,]2 [F,C]2 | %11
 [C,C]6 z2 | [F,A,F]3 [F,CF] [F,B,F][F,A,F]E,F, | z4 G,2 z2 | [C,G,C]3 [C,F,C] [C,E,]2 [C,G,C]2 | %15
 [F,,F,]6 z2 | [F,A,F]3 [F,CF] [F,B,F][F,A,F]E,F, | z4 G,2 z2 | %18
 [C,G,C]3 [C,G,C] [C,F,C]2 [C,E,B,]2 | [F,,F,]6 z2 | [F,C]3 [F,CF] [F,A,F]3 [F,B,F] | [F,A,F]6 z2 | %22
 [C,C]3 [C,C] [C,C]3 [E,C] | [F,CF]6 z2 | [F,A,F]3 [F,CF] [F,B,F][F,A,F][E,C][F,C] | %25
 [B,,B,]4 [B,,G,]2 z2 | [C,G,C]3 [C,G,C] [C,F,C]2 [C,E,B,]2 | [F,,F,]6 z2 |] %28
V:3
 x8 | x8 | x8 | x8 | x8 | x8 | x8 | x8 | x8 | x8 | x8 | x8 | x8 | B,,6 z2 | x8 | x8 | x8 | %17
 B,,6 z2 | x8 | x8 | x8 | x8 | x8 | x8 | x8 | x8 | x8 | x8 |] %28

